!!!OTL: IMMER LANGSAM VORAN IMMER LANGSAM VORAN
!!!ARE: Europa, Mitteleuropa, Deutschland
!!!SCT: F0591
!!!YEM: Copyright 1995, estate of Helmut Schaffrath.
**kern
*ICvox
*Ivox
*M4/4
*k[b-]
*F:
{8.cc
16b-
=1
4a
8.f
16f
4f
8.ff
16ee
=2
4dd
8.b-
16b-
4b-}
{8.b-
16a
=3
4g
8g
8f
4cc
8cc
8b-
=4
4a
8.g
16g
4f}
{4cc
=5
4a
4cc
4a
4cc
=6
8dd
8cc
8b-
8a
4b-}
{4b-
=7
4g
8.b-
16b-
4g
8.b-
16b-
=8
8cc
8b-
8a
8g
4a}
{8.cc
16b-
=9
4a
8.f
16f
4f
8.ff
16ee
=10
4dd
8.b-
16b-
4b-}
{8.b-
16a
=11
4g
8g
8f
4cc
8cc
8b-
=12
4a
8.g
16g
4f}
==
!!!AGN: Soldaten - Lied, Landsturm, Spott
!!!ONB: ESAC (Essen Associative Code) Database: FINK
!!!AMT: simple quadruple
!!!AIN: vox
!!!EED: Helmut Schaffrath
!!!EEV: 1.0
*-
